openmetadata-ui/src/main/resources/ui/src/assets/svg/ic-thumbs-up.svg

<svg width="12" height="12" viewBox="0 0 12 12" fill="none" xmlns="http://www.w3.org/2000/svg">
<path d="M2.4375 5.25H0.5625C0.251836 5.25 0 5.50184 0 5.8125V11.4375C0 11.7482 0.251836 12 0.5625 12H2.4375C2.74816 12 3 11.7482 3 11.4375V5.8125C3 5.50184 2.74816 5.25 2.4375 5.25ZM1.5 11.0625C1.18934 11.0625 0.9375 10.8107 0.9375 10.5C0.9375 10.1893 1.18934 9.9375 1.5 9.9375C1.81066 9.9375 2.0625 10.1893 2.0625 10.5C2.0625 10.8107 1.81066 11.0625 1.5 11.0625ZM9 1.90903C9 2.90316 8.39133 3.46078 8.22007 4.125H10.6042C11.3869 4.125 11.9963 4.7753 12 5.48667C12.0019 5.90709 11.8231 6.3597 11.5444 6.63973L11.5418 6.6423C11.7723 7.18927 11.7349 7.95567 11.3236 8.50486C11.5271 9.11177 11.322 9.8573 10.9397 10.257C11.0404 10.6694 10.9923 11.0205 10.7956 11.303C10.3172 11.9903 9.13163 12 8.12904 12L8.06236 12C6.93063 11.9996 6.00441 11.5875 5.26017 11.2564C4.88618 11.09 4.39718 10.8841 4.02616 10.8773C3.87288 10.8744 3.75 10.7494 3.75 10.596V5.58581C3.75 5.51081 3.78005 5.43884 3.83339 5.3861C4.76184 4.46866 5.16108 3.49734 5.92207 2.73506C6.26904 2.38744 6.39523 1.86234 6.51722 1.35455C6.62145 0.92093 6.83946 0 7.3125 0C7.875 0 9 0.1875 9 1.90903Z" fill="#D1CFC7"/>
</svg>

<svg xmlns="http://www.w3.org/2000/svg" width="12" height="12" fill="none"><path fill="#D1CFC7" d="M2.438 5.25H.562A.562.562 0 0 0 0 5.813v5.625c0 .31.252.562.563.562h1.875c.31 0 .562-.252.562-.563V5.814a.563.563 0 0 0-.563-.563ZM1.5 11.063a.562.562 0 1 1 0-1.125.562.562 0 0 1 0 1.124ZM9 1.909c0 .994-.609 1.552-.78 2.216h2.384c.783 0 1.392.65 1.396 1.362.002.42-.177.873-.456 1.153l-.002.002c.23.547.193 1.314-.218 1.863.203.607-.002 1.352-.384 1.752.1.412.052.764-.144 1.046-.479.687-1.664.697-2.667.697h-.067c-1.131 0-2.058-.412-2.802-.744-.374-.166-.863-.372-1.234-.379a.281.281 0 0 1-.276-.281v-5.01c0-.075.03-.147.083-.2.929-.917 1.328-1.889 2.09-2.65.346-.349.472-.874.594-1.381C6.621.92 6.84 0 7.312 0 7.875 0 9 .188 9 1.909Z"/></svg>
